file-replace-outline.svg

<svg fill="currentColor" viewBox="0 0 24 24"><path d="m14 3-2-2H4a2 2 0 0 0-2 2v12a2 2 0 0 0 2 2h7v2l4-3-4-3v2H4V3zm7 7v11a2 2 0 0 1-2 2H8a2 2 0 0 1-2-2v-2h2v2h11v-9h-5V7H8v6H6V7a2 2 0 0 1 2-2h8z"/></svg>

<svg  viewBox="0 0 24 24" fill="currentColor"><path  d="M14,3L12,1H4A2,2 0 0,0 2,3V15A2,2 0 0,0 4,17H11V19L15,16L11,13V15H4V3H14M21,10V21A2,2 0 0,1 19,23H8A2,2 0 0,1 6,21V19H8V21H19V12H14V7H8V13H6V7A2,2 0 0,1 8,5H16L21,10Z"/></svg>
